contributed-vectors/microsoft_auth.svg

<svg xmlns="http://www.w3.org/2000/svg" xml:space="preserve" style="fill-rule:evenodd;clip-rule:evenodd;stroke-linejoin:round;stroke-miterlimit:2" viewBox="0 0 192 192"><path d="M164.5 21.5c0-5.519-4.481-10-10-10h-133c-5.519 0-10 4.481-10 10v133c0 5.519 4.481 10 10 10h133c5.519 0 10-4.481 10-10v-133Z" style="fill:#9abeff" transform="translate(8 8)"/><path d="M136.685 79.249c0 53.296-40.685 70.036-40.685 70.036s-40.685-16.74-40.685-70.036c4.667-4.667 27.123-7.725 40.685-7.725 13.562 0 36.382 3.423 40.685 7.725M78.133 66.795c-3.713.478-7.365 1.083-10.646 1.799a27.341 27.341 0 0 1-.091-2.228c0-15.312 12.817-27.744 28.604-27.744 15.787 0 28.604 12.432 28.604 27.744 0 .792-.034 1.576-.101 2.349-3.275-.716-6.923-1.337-10.636-1.835-.025-9.543-8.021-17.283-17.867-17.283-9.816 0-17.794 7.694-17.867 17.198Z" style="fill:#fff"/><circle cx="97.359" cy="118.341" r="7.937" style="fill:#9abeff" transform="translate(-32.203 -59.833) scale(1.31681)"/><path d="M81.751 120.951a15.43 15.43 0 0 1-.05-1.241c0-8.144 6.407-14.757 14.299-14.757 7.892 0 14.299 6.613 14.299 14.757 0 .418-.017.832-.05 1.241H81.751Z" style="fill:#9abeff"/></svg>

<?xml version="1.0" encoding="UTF-8" standalone="no"?>
<!DOCTYPE svg PUBLIC "-//W3C//DTD SVG 1.1//EN" "http://www.w3.org/Graphics/SVG/1.1/DTD/svg11.dtd">
<svg width="100%" height="100%" viewBox="0 0 192 192" version="1.1" xmlns="http://www.w3.org/2000/svg" xmlns:xlink="http://www.w3.org/1999/xlink" xml:space="preserve" xmlns:serif="http://www.serif.com/" style="fill-rule:evenodd;clip-rule:evenodd;stroke-linejoin:round;stroke-miterlimit:2;">
    <g id="Layer1">
        <g transform="matrix(1,0,0,1,8,8)">
            <path d="M164.5,21.5C164.5,15.981 160.019,11.5 154.5,11.5L21.5,11.5C15.981,11.5 11.5,15.981 11.5,21.5L11.5,154.5C11.5,160.019 15.981,164.5 21.5,164.5L154.5,164.5C160.019,164.5 164.5,160.019 164.5,154.5L164.5,21.5Z" style="fill:rgb(154,190,255);"/>
        </g>
        <path d="M136.685,79.249C136.685,132.545 96,149.285 96,149.285C96,149.285 55.315,132.545 55.315,79.249C59.982,74.582 82.438,71.524 96,71.524C109.562,71.524 132.382,74.947 136.685,79.249" style="fill:white;"/>
        <path d="M78.133,66.795C74.42,67.273 70.768,67.878 67.487,68.594C67.427,67.86 67.396,67.117 67.396,66.366C67.396,51.054 80.213,38.622 96,38.622C111.787,38.622 124.604,51.054 124.604,66.366C124.604,67.158 124.57,67.942 124.503,68.715C121.228,67.999 117.58,67.378 113.867,66.88C113.842,57.337 105.846,49.597 96,49.597C86.184,49.597 78.206,57.291 78.133,66.795Z" style="fill:white;"/>
        <g transform="matrix(1.31681,0,0,1.31681,-32.203,-59.8332)">
            <circle cx="97.359" cy="118.341" r="7.937" style="fill:rgb(154,190,255);"/>
        </g>
        <path d="M81.751,120.951C81.718,120.542 81.701,120.128 81.701,119.71C81.701,111.566 88.108,104.953 96,104.953C103.892,104.953 110.299,111.566 110.299,119.71C110.299,120.128 110.282,120.542 110.249,120.951L81.751,120.951Z" style="fill:rgb(154,190,255);"/>
    </g>
</svg>
